dist/svg/alarm-duo-tone.svg

<svg xmlns="http://www.w3.org/2000/svg" viewBox="0 0 24 24"><path d="M5.9 3.259a2 2 0 0 1-.16.04c-.182.04-2.357 2.218-2.445 2.449-.213.557.321 1.127.91.971.153-.04.315-.184 1.288-1.152.612-.609 1.137-1.153 1.166-1.208.188-.356.048-.841-.294-1.016-.111-.056-.397-.108-.465-.084m12 0a2 2 0 0 1-.149.038c-.165.036-.377.245-.454.444a.76.76 0 0 0 .041.613c.031.058.557.604 1.169 1.213.973.968 1.135 1.112 1.288 1.152a.749.749 0 0 0 .924-.924c-.04-.153-.184-.315-1.152-1.288-.609-.612-1.152-1.136-1.207-1.165-.106-.056-.392-.107-.46-.083m-6.531 2.024A7.86 7.86 0 0 0 7.1 7c-.382.314-1.038.996-1.307 1.361-1.118 1.512-1.669 3.403-1.52 5.209.06.726.164 1.233.391 1.905a7.35 7.35 0 0 0 1.773 2.898c.688.706 1.238 1.115 2.079 1.543a7.68 7.68 0 0 0 5.959.42 7.36 7.36 0 0 0 2.88-1.755c.947-.915 1.574-1.897 1.979-3.101a7.58 7.58 0 0 0 .002-4.955 7.4 7.4 0 0 0-1.754-2.88c-.702-.724-1.295-1.159-2.162-1.587a7.5 7.5 0 0 0-2.869-.777c-.577-.044-.579-.044-1.182.002m1.46 1.537a6.3 6.3 0 0 1 2.891 1.171 8 8 0 0 1 1.289 1.289 6.253 6.253 0 0 1-1.109 8.588c-.778.625-1.658 1.035-2.7 1.258-.609.13-1.791.13-2.4 0-1.042-.223-1.922-.633-2.7-1.258A6.25 6.25 0 0 1 6.991 9.28 8 8 0 0 1 8.28 7.991c1.295-.96 2.981-1.394 4.549-1.171m-1.182 1.026a.8.8 0 0 0-.28.247l-.107.161-.012 2.403c-.009 1.641.001 2.45.031 2.551.058.2.223.388.419.477.149.067.296.073 1.802.073 1.51 0 1.653-.006 1.8-.074a.73.73 0 0 0 .398-.413c.154-.368-.018-.78-.398-.955-.144-.067-.279-.074-1.349-.075l-1.188-.001-.012-1.993-.011-1.994-.114-.165a.77.77 0 0 0-.979-.242" fill-rule="evenodd"/></svg>

<svg fill="none" xmlns="http://www.w3.org/2000/svg" viewBox="0 0 24 24"><path d="M5.900 3.259 C 5.878 3.267,5.806 3.285,5.740 3.299 C 5.558 3.339,3.383 5.517,3.295 5.748 C 3.082 6.305,3.616 6.875,4.205 6.719 C 4.358 6.679,4.520 6.535,5.493 5.567 C 6.105 4.958,6.630 4.414,6.659 4.359 C 6.847 4.003,6.707 3.518,6.365 3.343 C 6.254 3.287,5.968 3.235,5.900 3.259 M17.900 3.259 C 17.878 3.267,17.811 3.284,17.751 3.297 C 17.586 3.333,17.374 3.542,17.297 3.741 C 17.224 3.935,17.239 4.167,17.338 4.354 C 17.369 4.412,17.895 4.958,18.507 5.567 C 19.480 6.535,19.642 6.679,19.795 6.719 C 20.366 6.870,20.870 6.366,20.719 5.795 C 20.679 5.642,20.535 5.480,19.567 4.507 C 18.958 3.895,18.415 3.371,18.360 3.342 C 18.254 3.286,17.968 3.235,17.900 3.259 M11.369 5.283 C 9.848 5.400,8.286 6.028,7.100 7.000 C 6.718 7.314,6.062 7.996,5.793 8.361 C 4.675 9.873,4.124 11.764,4.273 13.570 C 4.333 14.296,4.437 14.803,4.664 15.475 C 5.046 16.608,5.601 17.515,6.437 18.373 C 7.125 19.079,7.675 19.488,8.516 19.916 C 10.357 20.854,12.493 21.004,14.475 20.336 C 15.599 19.957,16.496 19.410,17.355 18.581 C 18.302 17.666,18.929 16.684,19.334 15.480 C 19.890 13.830,19.891 12.171,19.336 10.525 C 18.958 9.403,18.401 8.489,17.582 7.645 C 16.880 6.921,16.287 6.486,15.420 6.058 C 14.505 5.606,13.601 5.361,12.551 5.281 C 11.974 5.237,11.972 5.237,11.369 5.283 M12.829 6.820 C 13.904 6.972,14.879 7.367,15.720 7.991 C 16.105 8.276,16.725 8.896,17.009 9.280 C 19.002 11.975,18.513 15.768,15.900 17.868 C 15.122 18.493,14.242 18.903,13.200 19.126 C 12.591 19.256,11.409 19.256,10.800 19.126 C 9.758 18.903,8.878 18.493,8.100 17.868 C 5.487 15.767,4.997 11.970,6.991 9.280 C 7.276 8.895,7.895 8.276,8.280 7.991 C 9.575 7.031,11.261 6.597,12.829 6.820 M11.647 7.846 C 11.545 7.896,11.429 7.998,11.367 8.093 L 11.260 8.254 11.248 10.657 C 11.239 12.298,11.249 13.107,11.279 13.208 C 11.337 13.408,11.502 13.596,11.698 13.685 C 11.847 13.752,11.994 13.758,13.500 13.758 C 15.010 13.758,15.153 13.752,15.300 13.684 C 15.494 13.595,15.616 13.468,15.698 13.271 C 15.852 12.903,15.680 12.491,15.300 12.316 C 15.156 12.249,15.021 12.242,13.951 12.241 L 12.763 12.240 12.751 10.247 L 12.740 8.253 12.626 8.088 C 12.410 7.777,11.994 7.674,11.647 7.846 " stroke="none" fill-rule="evenodd" fill="currentColor"/></svg>
